X:BFS 14-04 29
T:The Big Ship
T:Glise de Sherbrook
O:Quebec
B:Kennedy (Fiddlers Tune Book), 1954 (vol 2,p.25)
N:Recorded by Joseph Allard (1873-1947), 1928
M:4/4
K:G
P:A
D2| GFGA BABc dedc B4 |1 cdcB A2d2 BcBA G2 :|2 c2A2 F2D2 G4 G2 ||
P:B
d2| g2gf e2e2 dedc B4 |1 cdcB A4 dedc B2 :|2 c2A2 F2D2 G4 G2 |]

